X:79
T:Tommy Peoples' Jig                                                                                
M:6/8                                                                                               
L:1/8                                                                                               
K:G                                                                                                 
^c|dGF GDB,|G,3 DB,D|EcB ABG|FED cBA|\                                                              
B/c/dB GBG|EGE CEG|DFc BDF|AGF G2 :|                                                                
A|B3 GBG|gfe B2 A|FAF faf|ed^c dc=c|\                                                               
B/c/dB Ggf|ecG E3|DFc BDF|AGF G2 :|                                                                 
D|G(3Bcd g3|edB cBA|G(3Bcd a2 g|fd^c def|\                                                          
gdB Ggf|ecG E3|DFc BDF|AGF G2 :|
